X: 27381
T: Mo Mhàiri Mhin Mheall' Shuileach
R: strathspey
M: 4/4
K: Amixolydian
B|A<A e2 e>dB<g|G<G d>G B>AG<B|A<A e2 e>dB<g|a>eg>B {B}A2 A:|
|:B|A<a a>b a2 ga|{ga}b2 a>g g>ee<g|d>e g>a b>ga<b|g<eg>B A2 A:|

